X: 64
T:Marching Through Georgia
% Nottingham Music Database
S:via PR
M:2/4
L:1/4
K:C
"C"e3/4d/4 c/2d/2|e/2G/2 G/2G/2|"F"A/2c/2 "Fm"c/2d/2|"C"c2|"C"E3/4F/4 G/2G/2|\
"Am"A/2G/2 A/2c/2|"D7"d3/4^c/4 d/2e/2|
"G7"d2|"C"c/2c/2 d/2e/2|"F"f/2A/2 A/2A/2|"C"G/2c/2 "G7"c/2d/2|"C"e2|\
"Dm"d d3/4d/4|"Dm"d "G7"e/2d/2|"C"c2|c3/2e/2||
"C"g3/2e/2|g3/2e/2|"F"c/2d/2 c/2A/2|"C"c3/2e/2|"C"g3/2e/2|g3/2e/2|\
"Dm"d3/4d/4 d/2e/2|"G7"d2|
"C"c/2c/2 d/2e/2|"F"f/2A/2 A/2A/2|"C"G/2c/2 "G7"c/2d/2|"C"e2|"Dm"d d3/4d/4|\
"Dm"d/2e/2 -"G7"e/2d/2|"C"c2|c2||


